X:95
T:Earl Temple's Fancy. THO5.095
M:2/4
L:1/8
B:Thompson's Complete Collection of 200 Favourite Dances Vol.5
F:https://www.libraryofdance.org/manuals/1780c-Thompson-Compleat-5.pdf
Z:vmp. Peter Dunk 2024
Q:1/4=120
K:G
G/F/G/A/ GD|B/A/B/c/ BG|d/c/d/e/ dg|f/g/a/f/ gb|
G/F/G/A/ GD|B/A/B/c/ BG|d/c/d/e/ dg|f/g/a/f/ g2:|
|:b/a/g/a/ bg|dBGb|a/g/a/b/ af|dAFa|
d/c/d/e/ dA|f/e/f/g/ fd|a/g/a/b/ ad|f/e/d/c/ d2|
G/F/G/A/ GD|B/A/B/c/ BG|d/c/d/e/ dg|f/g/a/f/ gb|
G/F/G/A/ GD|B/A/B/c/ BG|d/c/d/e/ dg|f/g/a/f/ g2:|
W:
W:The 1st & 2nd Couples half right and left ./.
W:the same back again ./:
W:Cast off and lead through the 3rd Couple,
W:cast up and lead through to the top and cast off :/.
W:hands four round at bottom, right and left at top :/:

